X:8
T:Coleraigne
S:Bernie Waugh
R:Jig
M:6/8
L:1/8
K:Am
|:E|\
"Am"EAA ABc|"Em"Bee e2d|"Am"cBA ABc|"E7"B^GE E2E|
"Am"EAA ABc|"Em"Bee e2d|"Am"cBA "E7"B^GE|"Am"A3 A2:|
|:B|\
"C"c2c cdc|"G"Bdg g2^g|"Am"aed cBA|"E"^GBG E^FG|
"Am"A^GA "G"BAB|"C"cde "Dm"fed|"Am"cBA "E"B^GE|"Am"A3 A2:|

